packages/orbit-components/src/icons/svg/fuel.svg

<!--character:175:550:1786-->
  <svg width="24" height="24" viewBox="0 0 24 24" >
<path   d="M21.7357 9.2036C21.5743 9.05245 21.3594 8.97165 21.1384 8.979C20.9174 8.98634 20.7084 9.08123 20.5574 9.24277C19.0256 10.8803 18.2506 12.0529 18.2506 12.7287V18.979C18.2506 19.4392 17.8775 19.8123 17.4172 19.8123C16.957 19.8123 16.5839 19.4392 16.5839 18.979V7.72855C16.5839 6.57791 15.6511 5.64514 14.5005 5.64514H14.2938C14.1787 5.64514 14.0855 5.55186 14.0855 5.4368V3.97841C14.0845 3.17334 13.4321 2.52094 12.6271 2.52002H3.46005C2.65453 2.52048 2.00138 3.17288 2 3.97841V19.8123C2.00138 20.6172 2.65351 21.2693 3.45839 21.2707H12.6254C13.4305 21.2698 14.0829 20.6174 14.0838 19.8123V7.52021C14.0838 7.40514 14.1771 7.31187 14.2921 7.31187H14.5005C14.7306 7.31187 14.9171 7.49842 14.9171 7.72855V18.979C14.9171 20.3597 16.0365 21.4791 17.4172 21.4791C18.798 21.4791 19.9173 20.3597 19.9173 18.979V17.1231C19.917 17.044 19.9616 16.9716 20.0323 16.9364L20.8932 16.5055C21.3174 16.2949 21.5853 15.8616 21.5841 15.388V14.3955C21.5841 13.7051 21.0244 13.1454 20.334 13.1454H20.1173C20.0029 13.1454 19.9099 13.0532 19.909 12.9387V12.8087C20.4211 11.9205 21.0488 11.1042 21.7757 10.3811C22.0897 10.0449 22.0718 9.51778 21.7357 9.2036ZM10.9578 15.0205C10.9578 15.2506 10.7713 15.4372 10.5411 15.4372H9.70776C9.47764 15.4372 9.29108 15.2506 9.29108 15.0205V12.5204C9.29108 12.2903 9.47764 12.1037 9.70776 12.1037H10.5411C10.7713 12.1037 10.9578 12.2903 10.9578 12.5204V15.0205ZM11.3745 8.14523C11.6047 8.14523 11.7912 7.95867 11.7912 7.72855V5.22845C11.7912 4.99833 11.6047 4.81177 11.3745 4.81177H4.70763C4.4775 4.81177 4.29094 4.99833 4.29094 5.22845V7.72855C4.29094 7.95867 4.4775 8.14523 4.70763 8.14523H11.3745Z" />
</svg>

<!--character:175:550:1786-->
<svg width="24" height="24" viewBox="0 0 24 24" xmlns="http://www.w3.org/2000/svg"><path d="M21.7357 9.2036a.8334.8334 0 0 0-1.1783.0392c-1.5318 1.6375-2.3068 2.81-2.3068 3.486v6.2501a.8334.8334 0 0 1-1.6667 0V7.7285c0-1.1506-.9328-2.0834-2.0834-2.0834h-.2067a.2083.2083 0 0 1-.2083-.2083V3.9784c-.001-.805-.6534-1.4575-1.4584-1.4584H3.46C2.6545 2.5205 2.0014 3.1729 2 3.9784v15.834c.0014.8048.6535 1.457 1.4584 1.4583h9.167c.805-.001 1.4575-.6533 1.4584-1.4584V7.5202c0-.115.0933-.2084.2083-.2084h.2084a.4167.4167 0 0 1 .4166.4167V18.979c0 1.3808 1.1194 2.5001 2.5001 2.5001 1.3808 0 2.5001-1.1193 2.5001-2.5v-1.856a.2075.2075 0 0 1 .115-.1866l.8609-.4309a1.2442 1.2442 0 0 0 .6909-1.1175v-.9926c0-.6903-.5597-1.25-1.25-1.25h-.2168a.2083.2083 0 0 1-.2083-.2067v-.13a11.5838 11.5838 0 0 1 1.8667-2.4276.8334.8334 0 0 0-.04-1.1775zm-10.7779 5.8169a.4167.4167 0 0 1-.4166.4166h-.8334a.4167.4167 0 0 1-.4167-.4166v-2.5001a.4167.4167 0 0 1 .4167-.4167h.8334a.4167.4167 0 0 1 .4166.4167v2.5zm.8334-7.292a.4167.4167 0 0 1-.4167.4167H4.7076a.4167.4167 0 0 1-.4167-.4167v-2.5a.4167.4167 0 0 1 .4167-.4167h6.667a.4167.4167 0 0 1 .4166.4166v2.5001z"/></svg>
